build/category/ShowTableOutline.svg

<svg xmlns="http://www.w3.org/2000/svg" fill="none" viewBox="0 0 24 24" focusable="false"><path d="M0 0H24V24H0z"/><path fill="#74767B" fill-rule="evenodd" d="M3 7C3 5.34315 4.34315 4 6 4L18 4C19.6569 4 21 5.34315 21 7L21 17C21 18.6569 19.6569 20 18 20L6 20C4.34315 20 3 18.6569 3 17L3 7ZM6 5.3L18 5.3C18.9389 5.3 19.7 6.06112 19.7 7L19.7 8.34998L4.3 8.34998L4.3 7C4.3 6.06112 5.06112 5.3 6 5.3ZM4.3 9.64998L8.56665 9.64998L8.56665 18.7L6 18.7C5.06112 18.7 4.3 17.9389 4.3 17L4.3 9.64998ZM9.86665 18.7L9.86665 9.64998L14.1333 9.64998L14.1333 18.7L9.86665 18.7ZM15.4333 18.7L18 18.7C18.9389 18.7 19.7 17.9389 19.7 17L19.7 9.64998L15.4333 9.64998L15.4333 18.7Z"/></svg>

<svg xmlns="http://www.w3.org/2000/svg" fill="none" viewBox="0 0 24 24" focusable="false"><path fill="#74767B" fill-rule="evenodd" d="M3 7c0-1.66 1.34-3 3-3h12c1.65 0 3 1.34 3 3v10c0 1.65-1.35 3-3 3H6c-1.66 0-3-1.35-3-3zm3-1.71h12c.93 0 1.7.77 1.7 1.71v1.34H4.29V7c0-.94.77-1.71 1.71-1.71M4.29 9.64h4.27v9.06H6c-.94 0-1.71-.77-1.71-1.7zm5.57 9.06V9.64h4.27v9.06zm5.57 0H18c.93 0 1.7-.77 1.7-1.7V9.64h-4.27z"/></svg>
